public/assets/img/home1/icon/figma-icon.svg

<svg width="24" height="24" viewBox="0 0 24 24" fill="none" xmlns="http://www.w3.org/2000/svg">
<mask id="mask0_1531_62734" style="mask-type:alpha" maskUnits="userSpaceOnUse" x="0" y="0" width="24" height="24">
<rect width="23.04" height="23.04" fill="#D9D9D9"/>
</mask>
<g mask="url(#mask0_1531_62734)">
</g>
<g clip-path="url(#clip0_1531_62734)">
<path d="M12.507 12.4801C12.507 10.3593 14.2262 8.64008 16.347 8.64008C18.4677 8.64008 20.187 10.3593 20.187 12.4801C20.187 14.6009 18.4677 16.32 16.347 16.32C14.2262 16.32 12.507 14.6008 12.507 12.4801Z" fill="#00BCFF"/>
<path d="M4.82654 20.16C4.82654 18.0393 6.54576 16.32 8.66652 16.32L10.7129 15.2396L12.5065 16.32V20.16C12.5065 22.2808 10.7873 24 8.66652 24C6.54576 24 4.82654 22.2808 4.82654 20.16Z" fill="#00CF7F"/>
<path d="M12.5063 0.959991L10.4167 4.59014L12.5063 8.63996H16.2924C18.4132 8.63996 20.1324 6.92074 20.1324 4.79998C20.1324 2.67922 18.4132 0.959991 16.2924 0.959991H12.5063Z" fill="#FF7361"/>
<path d="M4.77261 4.79998C4.77261 6.92074 6.49184 8.63996 8.6126 8.63996L10.6496 9.42674L12.5064 8.63996V0.959991H8.61255C6.49184 0.959991 4.77261 2.67922 4.77261 4.79998Z" fill="#FF4D12"/>
<path d="M4.82654 12.48C4.82654 14.6008 6.54576 16.32 8.66652 16.32H12.5065V8.63995H8.66652C6.54576 8.63995 4.82654 10.3592 4.82654 12.48Z" fill="#B659FF"/>
</g>
<defs>
<clipPath id="clip0_1531_62734">
<rect width="23.04" height="23.04" fill="white" transform="translate(0.959991 0.959991)"/>
</clipPath>
</defs>
</svg>

<svg xmlns="http://www.w3.org/2000/svg" width="24" height="24" fill="none" viewBox="0 0 24 24">
    <mask id="a" width="24" height="24" x="0" y="0" maskUnits="userSpaceOnUse" style="mask-type:alpha">
        <path fill="#d9d9d9" d="M0 0h23.04v23.04H0z"/>
    </mask>
    <g clip-path="url(#b)">
        <path fill="#00bcff" d="M12.507 12.48a3.84 3.84 0 1 1 7.68 0 3.84 3.84 0 0 1-7.68 0"/>
        <path fill="#00cf7f" d="M4.827 20.16a3.84 3.84 0 0 1 3.84-3.84l2.046-1.08 1.794 1.08v3.84a3.84 3.84 0 1 1-7.68 0"/>
        <path fill="#ff7361" d="m12.506.96-2.09 3.63 2.09 4.05h3.786a3.84 3.84 0 1 0 0-7.68z"/>
        <path fill="#ff4d12" d="M4.773 4.8a3.84 3.84 0 0 0 3.84 3.84l2.037.787 1.856-.787V.96H8.613a3.84 3.84 0 0 0-3.84 3.84"/>
        <path fill="#b659ff" d="M4.827 12.48a3.84 3.84 0 0 0 3.84 3.84h3.84V8.64h-3.84a3.84 3.84 0 0 0-3.84 3.84"/>
    </g>
    <defs>
        <clipPath id="b">
            <path fill="#fff" d="M.96.96H24V24H.96z"/>
        </clipPath>
    </defs>
</svg>
